X:1
T:Title
%%score { ( 1 3 ) | 2 }
L:1/8
M:9/8
K:F
V:1 treble nm="Grand Piano"
V:3 treble 
V:2 treble 
V:1
 z3 z2[Q:1/4=105] A G2 A | c3- c2 [GB] [FA]2 [EG] | A3- A2 F E2 F | A3- A2 [EG] [DF]2 [^CE] | %4
[M:5/8] [A,DF]-[A,DF]- [A,DF]3 |[M:2/4] [A,F] [CEG]2 [CFA] |[M:9/8] [CEB]3- [CEB]2 [CEG] A2 B | %7
 c6 ddd | c3- c2 [FA] [EA]2 G |[M:3/4] F6 |[M:3/8] CEG |[M:9/8] B6 z3 | A6 z3 | G6 z3 | %14
[M:21/16] z3 B3/2- B3 CF/-F/G |[M:9/8] A6 z3 | d6 z3 | c6 z3 |[M:3/4] F6 |] %19
V:2
 z3 z2 [F,CF] [B,CE]2 [A,CF] | [G,CE]3- [G,CE]2[K:bass] [C,C] [C,C]2 [C,C] | %2
 [F,CF]3- [F,CF]2 [D,D] [G,A,^C]2 [F,A,D] | [E,A,^C]3- [E,A,C]2 [A,,A,] [A,,A,]2 [A,,A,] | %4
[M:5/8] D,-D,- D,3 |[M:2/4] C, B,,2 A,, |[M:9/8] G,,3- G,,2 C,[K:treble] [F,CF]2 [G,CE] | %7
 [A,CF]6 [B,F][B,F][B,F] | [A,CF]3- [A,CF]2[K:bass] [C,C] [C,C]2 [C,B,C] |[M:3/4] [F,A,C]6 | %10
[M:3/8] z3 |[M:9/8] [C,G,][C,G,][C,G,] [C,G,]2 [C,C] [C,C]2 [C,C] | [F,CF][F,C][F,C] [F,C]3 z3 | %13
 [G,CE][G,C][G,C] [G,C]2 [G,CE] G,,2 G,, |[M:21/16] [C,G,]3/2-[C,G,]3/2-[C,G,]3/2- [C,G,]3 z3 | %15
[M:9/8] [F,CF][F,C][F,C] [F,C]2[K:treble] [A,CF] [G,CE]2 [F,CF] | [B,F]2 B, B,3 z3 | %17
 [F,A,F][F,A,][F,A,] [F,A,]2 [C,C] [C,C]2 [C,B,C] |[M:3/4] [F,A,C]6 |] %19
V:3
 x9 | x9 | x9 | x9 |[M:5/8] x5 |[M:2/4] x4 |[M:9/8] x9 | x9 | x9 |[M:3/4] x6 |[M:3/8] x3 | %11
[M:9/8] EEE E2 [GB] [Ac]2 [GB] | z FF F3 ABA | z EE E2 G [=B,FA]2 [G,DF] | %14
[M:21/16] E3/2-E3/2- E3- E z/ z3 |[M:9/8] z FF F2 c B2 A | z2 F F3 FBd | z FF F2 [FA] [EA]2 G | %18
[M:3/4] x6 |] %19

